images/icons/materials-red.svg

<svg width="78" height="78" viewBox="0 0 78 78" fill="none" xmlns="http://www.w3.org/2000/svg">
<g id="Paint Roller">
<path id="Vector" d="M73.425 12.225H64.5V9.675C64.497 8.66148 64.093 7.69033 63.3763 6.97366C62.6597 6.25699 61.6885 5.85303 60.675 5.85H51.75V2.025C51.75 1.68685 51.6157 1.36255 51.3766 1.12344C51.1375 0.88433 50.8132 0.75 50.475 0.75H2.025C1.68685 0.75 1.36255 0.88433 1.12344 1.12344C0.88433 1.36255 0.75 1.68685 0.75 2.025V73.425C0.75 73.7631 0.88433 74.0875 1.12344 74.3266C1.36255 74.5657 1.68685 74.7 2.025 74.7H40.5045C40.7691 75.443 41.2563 76.0864 41.8996 76.5427C42.543 76.999 43.3113 77.2459 44.1 77.25H51.75C52.7635 77.247 53.7347 76.843 54.4513 76.1263C55.168 75.4097 55.572 74.4385 55.575 73.425V51.75H56.85C57.1881 51.75 57.5125 51.6157 57.7516 51.3766C57.9907 51.1375 58.125 50.8132 58.125 50.475V45.375C58.125 45.0368 57.9907 44.7125 57.7516 44.4734C57.5125 44.2343 57.1881 44.1 56.85 44.1H51.75V39H73.425C74.4385 38.997 75.4097 38.593 76.1263 37.8763C76.843 37.1597 77.247 36.1885 77.25 35.175V16.05C77.247 15.0365 76.843 14.0653 76.1263 13.3487C75.4097 12.632 74.4385 12.228 73.425 12.225V12.225ZM64.5 22.425V19.875H69.6V31.35H51.75V26.25H60.675C61.6885 26.247 62.6597 25.843 63.3763 25.1263C64.093 24.4097 64.497 23.4385 64.5 22.425V22.425ZM60.675 8.4C61.0131 8.4 61.3375 8.53433 61.5766 8.77344C61.8157 9.01255 61.95 9.33685 61.95 9.675V22.425C61.95 22.7632 61.8157 23.0875 61.5766 23.3266C61.3375 23.5657 61.0131 23.7 60.675 23.7H14.775C14.4368 23.7 14.1125 23.5657 13.8734 23.3266C13.6343 23.0875 13.5 22.7632 13.5 22.425V9.675C13.5 9.33685 13.6343 9.01255 13.8734 8.77344C14.1125 8.53433 14.4368 8.4 14.775 8.4H60.675ZM32.625 27.525C31.6115 27.528 30.6403 27.932 29.9237 28.6487C29.207 29.3653 28.803 30.3365 28.8 31.35V40.275C28.8 40.6132 28.6657 40.9375 28.4266 41.1766C28.1875 41.4157 27.8632 41.55 27.525 41.55C27.1868 41.55 26.8625 41.4157 26.6234 41.1766C26.3843 40.9375 26.25 40.6132 26.25 40.275V36.45C26.25 35.4355 25.847 34.4626 25.1297 33.7453C24.4124 33.028 23.4395 32.625 22.425 32.625C21.4105 32.625 20.4376 33.028 19.7203 33.7453C19.003 34.4626 18.6 35.4355 18.6 36.45V50.475C18.6 50.8132 18.4657 51.1375 18.2266 51.3766C17.9875 51.6157 17.6632 51.75 17.325 51.75C16.9868 51.75 16.6625 51.6157 16.4234 51.3766C16.1843 51.1375 16.05 50.8132 16.05 50.475V26.25H39V36.45C39 36.7882 38.8657 37.1125 38.6266 37.3516C38.3875 37.5907 38.0632 37.725 37.725 37.725C37.3868 37.725 37.0625 37.5907 36.8234 37.3516C36.5843 37.1125 36.45 36.7882 36.45 36.45V31.35C36.447 30.3365 36.043 29.3653 35.3263 28.6487C34.6097 27.932 33.6385 27.528 32.625 27.525V27.525ZM40.275 72.15H3.3V3.3H49.2V5.85H14.775C13.7615 5.85303 12.7903 6.25699 12.0737 6.97366C11.357 7.69033 10.953 8.66148 10.95 9.675V12.225H9.675C8.99932 12.227 8.35189 12.4963 7.87411 12.9741C7.39633 13.4519 7.12702 14.0993 7.125 14.775V17.325C7.12702 18.0007 7.39633 18.6481 7.87411 19.1259C8.35189 19.6037 8.99932 19.873 9.675 19.875H10.95V22.425C10.9541 23.2137 11.201 23.982 11.6573 24.6254C12.1136 25.2687 12.757 25.7559 13.5 26.0205V50.475C13.5 51.4895 13.903 52.4624 14.6203 53.1797C15.3376 53.897 16.3105 54.3 17.325 54.3C18.3395 54.3 19.3124 53.897 20.0297 53.1797C20.747 52.4624 21.15 51.4895 21.15 50.475V36.45C21.15 36.1118 21.2843 35.7875 21.5234 35.5484C21.7625 35.3093 22.0868 35.175 22.425 35.175C22.7632 35.175 23.0875 35.3093 23.3266 35.5484C23.5657 35.7875 23.7 36.1118 23.7 36.45V40.275C23.7 41.2895 24.103 42.2624 24.8203 42.9797C25.5376 43.697 26.5105 44.1 27.525 44.1C28.5395 44.1 29.5124 43.697 30.2297 42.9797C30.947 42.2624 31.35 41.2895 31.35 40.275V31.35C31.35 31.0118 31.4843 30.6875 31.7234 30.4484C31.9625 30.2093 32.2868 30.075 32.625 30.075C32.9632 30.075 33.2875 30.2093 33.5266 30.4484C33.7657 30.6875 33.9 31.0118 33.9 31.35V36.45C33.9 37.4645 34.303 38.4374 35.0203 39.1547C35.7376 39.872 36.7105 40.275 37.725 40.275C38.7395 40.275 39.7124 39.872 40.4297 39.1547C41.147 38.4374 41.55 37.4645 41.55 36.45V26.25H49.2V31.35H47.925C46.9115 31.353 45.9403 31.757 45.2237 32.4737C44.507 33.1903 44.103 34.1615 44.1 35.175V44.1H39C38.6618 44.1 38.3375 44.2343 38.0984 44.4734C37.8593 44.7125 37.725 45.0368 37.725 45.375V50.475C37.725 50.8132 37.8593 51.1375 38.0984 51.3766C38.3375 51.6157 38.6618 51.75 39 51.75H40.275V72.15ZM10.95 14.775V17.325H9.675V14.775H10.95ZM53.025 73.425C53.025 73.7631 52.8907 74.0875 52.6516 74.3266C52.4125 74.5657 52.0882 74.7 51.75 74.7H44.1C43.7618 74.7 43.4375 74.5657 43.1984 74.3266C42.9593 74.0875 42.825 73.7631 42.825 73.425V51.75H53.025V73.425ZM55.575 46.65V49.2H40.275V46.65H55.575ZM74.7 35.175C74.7 35.5132 74.5657 35.8375 74.3266 36.0766C74.0875 36.3157 73.7631 36.45 73.425 36.45H51.75C51.0743 36.452 50.4269 36.7213 49.9491 37.1991C49.4713 37.6769 49.202 38.3243 49.2 39V44.1H46.65V35.175C46.65 34.8368 46.7843 34.5125 47.0234 34.2734C47.2625 34.0343 47.5868 33.9 47.925 33.9H69.6C70.2757 33.898 70.9231 33.6287 71.4009 33.1509C71.8787 32.6731 72.148 32.0257 72.15 31.35V19.875C72.148 19.1993 71.8787 18.5519 71.4009 18.0741C70.9231 17.5963 70.2757 17.327 69.6 17.325H64.5V14.775H73.425C73.7631 14.775 74.0875 14.9093 74.3266 15.1484C74.5657 15.3875 74.7 15.7118 74.7 16.05V35.175Z" fill="#CA2C37"/>
<path id="Vector_2" d="M17.3249 56.85C16.5684 56.85 15.8289 57.0743 15.1999 57.4946C14.5709 57.9149 14.0806 58.5123 13.7911 59.2112C13.5016 59.9101 13.4258 60.6792 13.5734 61.4212C13.721 62.1632 14.0853 62.8447 14.6203 63.3797C15.1552 63.9146 15.8367 64.2789 16.5787 64.4265C17.3207 64.5741 18.0898 64.4983 18.7887 64.2088C19.4876 63.9193 20.085 63.4291 20.5053 62.8C20.9256 62.171 21.1499 61.4315 21.1499 60.675C21.1499 59.6605 20.7469 58.6876 20.0296 57.9703C19.3123 57.253 18.3394 56.85 17.3249 56.85V56.85ZM17.3249 61.95C17.0728 61.95 16.8263 61.8752 16.6166 61.7351C16.4069 61.595 16.2435 61.3959 16.147 61.1629C16.0505 60.9299 16.0252 60.6736 16.0744 60.4262C16.1236 60.1789 16.2451 59.9517 16.4234 59.7734C16.6017 59.5951 16.8289 59.4737 17.0762 59.4245C17.3235 59.3753 17.5799 59.4005 17.8129 59.497C18.0458 59.5935 18.245 59.757 18.3851 59.9666C18.5252 60.1763 18.5999 60.4228 18.5999 60.675C18.5999 61.0131 18.4656 61.3374 18.2265 61.5765C17.9874 61.8156 17.6631 61.95 17.3249 61.95Z" fill="#CA2C37"/>
<path id="Vector_3" d="M27.525 46.65C26.7685 46.65 26.029 46.8744 25.4 47.2947C24.7709 47.715 24.2807 48.3123 23.9912 49.0113C23.7017 49.7102 23.6259 50.4793 23.7735 51.2212C23.9211 51.9632 24.2854 52.6448 24.8203 53.1797C25.3553 53.7146 26.0368 54.0789 26.7788 54.2265C27.5208 54.3741 28.2898 54.2984 28.9888 54.0089C29.6877 53.7194 30.2851 53.2291 30.7054 52.6001C31.1257 51.9711 31.35 51.2315 31.35 50.475C31.35 49.4606 30.947 48.4877 30.2297 47.7703C29.5124 47.053 28.5395 46.65 27.525 46.65ZM27.525 51.75C27.2728 51.75 27.0263 51.6753 26.8167 51.5352C26.607 51.3951 26.4436 51.1959 26.3471 50.9629C26.2506 50.73 26.2253 50.4736 26.2745 50.2263C26.3237 49.979 26.4451 49.7518 26.6235 49.5735C26.8018 49.3952 27.0289 49.2737 27.2763 49.2245C27.5236 49.1753 27.78 49.2006 28.0129 49.2971C28.2459 49.3936 28.445 49.557 28.5851 49.7667C28.7252 49.9764 28.8 50.2229 28.8 50.475C28.8 50.8132 28.6657 51.1375 28.4266 51.3766C28.1875 51.6157 27.8632 51.75 27.525 51.75Z" fill="#CA2C37"/>
<path id="Vector_4" d="M16.05 12.225C16.05 12.5632 16.1843 12.8875 16.4234 13.1266C16.6625 13.3657 16.9868 13.5 17.325 13.5H51.75C52.0881 13.5 52.4124 13.3657 52.6516 13.1266C52.8907 12.8875 53.025 12.5632 53.025 12.225C53.025 11.8869 52.8907 11.5626 52.6516 11.3235C52.4124 11.0843 52.0881 10.95 51.75 10.95H17.325C16.9868 10.95 16.6625 11.0843 16.4234 11.3235C16.1843 11.5626 16.05 11.8869 16.05 12.225Z" fill="#CA2C37"/>
<path id="Vector_5" d="M56.85 13.5H58.125C58.4631 13.5 58.7874 13.3657 59.0265 13.1266C59.2656 12.8875 59.4 12.5632 59.4 12.225C59.4 11.8869 59.2656 11.5626 59.0265 11.3235C58.7874 11.0843 58.4631 10.95 58.125 10.95H56.85C56.5118 10.95 56.1875 11.0843 55.9484 11.3235C55.7093 11.5626 55.575 11.8869 55.575 12.225C55.575 12.5632 55.7093 12.8875 55.9484 13.1266C56.1875 13.3657 56.5118 13.5 56.85 13.5Z" fill="#CA2C37"/>
</g>
</svg>

<svg width="78" height="78" viewBox="0 0 78 78" fill="none" xmlns="http://www.w3.org/2000/svg"><g fill="#CA2C37"><path d="M73.425 12.225H64.5v-2.55a3.836 3.836 0 0 0-3.825-3.825H51.75V2.025A1.275 1.275 0 0 0 50.475.75H2.025A1.275 1.275 0 0 0 .75 2.025v71.4A1.275 1.275 0 0 0 2.025 74.7h38.48a3.838 3.838 0 0 0 3.595 2.55h7.65a3.836 3.836 0 0 0 3.825-3.825V51.75h1.275a1.275 1.275 0 0 0 1.275-1.275v-5.1A1.275 1.275 0 0 0 56.85 44.1h-5.1V39h21.675a3.836 3.836 0 0 0 3.825-3.825V16.05a3.836 3.836 0 0 0-3.825-3.825Zm-8.925 10.2v-2.55h5.1V31.35H51.75v-5.1h8.925a3.836 3.836 0 0 0 3.825-3.825ZM60.675 8.4a1.275 1.275 0 0 1 1.275 1.275v12.75a1.275 1.275 0 0 1-1.275 1.275h-45.9a1.275 1.275 0 0 1-1.275-1.275V9.675A1.275 1.275 0 0 1 14.775 8.4h45.9Zm-28.05 19.125A3.836 3.836 0 0 0 28.8 31.35v8.925a1.275 1.275 0 1 1-2.55 0V36.45a3.825 3.825 0 1 0-7.65 0v14.025a1.275 1.275 0 1 1-2.55 0V26.25H39v10.2a1.275 1.275 0 1 1-2.55 0v-5.1a3.836 3.836 0 0 0-3.825-3.825Zm7.65 44.625H3.3V3.3h45.9v2.55H14.775a3.836 3.836 0 0 0-3.825 3.825v2.55H9.675a2.557 2.557 0 0 0-2.55 2.55v2.55a2.558 2.558 0 0 0 2.55 2.55h1.275v2.55a3.838 3.838 0 0 0 2.55 3.595v24.455a3.825 3.825 0 1 0 7.65 0V36.45a1.275 1.275 0 1 1 2.55 0v3.825a3.825 3.825 0 1 0 7.65 0V31.35a1.275 1.275 0 1 1 2.55 0v5.1a3.825 3.825 0 1 0 7.65 0v-10.2h7.65v5.1h-1.275a3.836 3.836 0 0 0-3.825 3.825V44.1H39a1.275 1.275 0 0 0-1.275 1.275v5.1A1.275 1.275 0 0 0 39 51.75h1.275v20.4ZM10.95 14.775v2.55H9.675v-2.55h1.275Zm42.075 58.65A1.275 1.275 0 0 1 51.75 74.7H44.1a1.275 1.275 0 0 1-1.275-1.275V51.75h10.2v21.675Zm2.55-26.775v2.55h-15.3v-2.55h15.3ZM74.7 35.175a1.275 1.275 0 0 1-1.275 1.275H51.75A2.558 2.558 0 0 0 49.2 39v5.1h-2.55v-8.925a1.275 1.275 0 0 1 1.275-1.275H69.6a2.558 2.558 0 0 0 2.55-2.55V19.875a2.558 2.558 0 0 0-2.55-2.55h-5.1v-2.55h8.925A1.275 1.275 0 0 1 74.7 16.05v19.125Z"/><path d="M17.325 56.85a3.825 3.825 0 1 0 0 7.65 3.825 3.825 0 0 0 0-7.65Zm0 5.1a1.275 1.275 0 1 1 0-2.55 1.275 1.275 0 0 1 0 2.55ZM27.525 46.65a3.825 3.825 0 1 0 0 7.65 3.825 3.825 0 0 0 0-7.65Zm0 5.1a1.275 1.275 0 1 1 0-2.549 1.275 1.275 0 0 1 0 2.549ZM16.05 12.225a1.275 1.275 0 0 0 1.275 1.275H51.75a1.275 1.275 0 0 0 0-2.55H17.325a1.275 1.275 0 0 0-1.275 1.275ZM56.85 13.5h1.275a1.275 1.275 0 1 0 0-2.55H56.85a1.275 1.275 0 1 0 0 2.55Z"/></g></svg>
